X: 35425
T: Rounding Malin Head
R: reel
M: 4/4
K: Edorian
|:EB~B2 EBdB|edBc- cAB2|EB~B2 EBdB|edBc- cAd2|
EB~B2 EBdB|[M:6/4]edBc- cAed Bc-cA|1 [M:4/4]Bd cA BGFG:|2 Bd cA Bdfg||
|:eB~B2 Bdeg|fdag fabg|eB~B2 Bdef|edBc- cAd2|
eB~B2 Bdeg|fdag faga|bafg- gefd|1 Bd cA Bdfg:|2 Bd cA BGFG||

